assets/svg/icon-large-guide-blue.svg

<?xml version="1.0" encoding="UTF-8" standalone="no"?>
<svg width="64px" height="64px" viewBox="0 0 64 64" version="1.1" xmlns="http://www.w3.org/2000/svg" xmlns:xlink="http://www.w3.org/1999/xlink">
    <!-- Generator: Sketch 3.8.3 (29802) - http://www.bohemiancoding.com/sketch -->
    <title>blue/icon-large-guide-blue</title>
    <desc>Created with Sketch.</desc>
    <defs></defs>
    <g id="blue,-base" stroke="none" stroke-width="1" fill="none" fill-rule="evenodd">
        <g id="icons,-large-detailed-(blue)" transform="translate(-274.000000, -414.000000)" fill="#1055FF">
            <g id="blue/icon-large-guide-blue" transform="translate(274.000000, 414.000000)">
                <g id="icon-guide">
                    <g id="Page-1">
                        <g id="icon-guide">
                            <path d="M48.6221119,0 L6.16708488,5.25183761e-15 C5.28392147,0.0616234339 4.20549659,0.314656089 3.10337709,0.927111214 C1.19058421,1.99006292 -1.37870892e-07,3.79847909 0,6.34531297 C2.50282072e-07,10.9686727 1.88779188,13.3161143 5.40442885,14.3983673 C6.61316226,14.7703577 14.4600391,14.8372945 28.2417683,14.7324143 C31.851522,14.7049437 35.6863571,14.6654577 39.624397,14.6170797 C42.4261026,14.5826613 45.1157312,14.545785 47.5973009,14.5089079 C48.4659017,14.4960001 49.2464781,14.4840138 49.92703,14.4732562 C50.6197382,14.4621888 50.6197382,14.4621888 50.7682862,14.4597229 L49.3538886,13.0686102 L49.3538886,21.7381252 L52.1364973,21.7381252 L52.1364973,13.0686102 L52.1364973,11.6540177 L50.7220996,11.6774975 C50.5745927,11.6799463 50.5745927,11.6799463 49.88305,11.690995 C49.2033567,11.7017391 48.4236565,11.713712 47.5559548,11.7266064 C45.0766607,11.7634496 42.3893928,11.8002936 39.5902159,11.8346809 C35.6562441,11.883009 31.8256453,11.9224514 28.220593,11.9498862 C15.6650882,12.0454347 6.97831364,11.9713333 6.22290034,11.7388531 C3.83205051,11.0030637 2.78260888,9.6980982 2.7826087,6.34531282 C2.78260862,4.86701466 3.382942,3.95514933 4.45501214,3.35939283 C4.85548822,3.13684561 5.29642103,2.97675981 5.73868234,2.87299129 C5.99858761,2.81200927 6.18901922,2.78479736 6.26989068,2.77880525 L48.6221119,2.7826087 L48.6221119,0 L48.6221119,0 Z" id="Path-1"></path>
                            <path d="M44.3415497,0.888717502 C44.0692217,1.23736527 43.6971054,1.82355494 43.3323515,2.61337847 C41.638208,6.28180928 41.920973,10.3413828 45.4999939,14.0365758 L47.4987639,12.1006446 C44.8058925,9.32036479 44.6085271,6.48684694 45.8585795,3.78003334 C46.1257357,3.20154379 46.3855296,2.79229402 46.5344751,2.6016067 L44.3415497,0.888717502 L44.3415497,0.888717502 Z" id="Path-2"></path>
                            <path d="M0.17689441,7.40688615 L0.17689441,56.9482354 L0.20072573,56.6918269 C0.18751933,56.7622591 0.172229298,56.8649448 0.158362494,56.9964189 C0.0480681546,58.0421429 0.167188538,59.2186071 0.706448674,60.368996 C1.77833156,62.6556145 4.17308632,64 7.93639751,64 L50.2145316,64 L51.605836,64 L51.605836,62.6086957 L51.605836,58.1713715 L48.8232273,58.1713715 L48.8232273,62.6086957 L50.2145316,61.2173913 L7.93639751,61.2173913 C5.19883914,61.2173913 3.81247589,60.4391042 3.22597368,59.1879351 C2.93399389,58.5650625 2.86393553,57.8731478 2.92562186,57.2882865 C2.93140999,57.233408 2.9357749,57.204094 2.93567178,57.2046439 L2.95950311,56.9482354 L2.95950311,7.40688615 L0.17689441,7.40688615 L0.17689441,7.40688615 Z" id="Path-3"></path>
                            <path d="M42.8555064,35.5920949 L42.8555064,30.7193306 C42.8594418,30.6484569 42.899621,30.3574443 43.0064577,29.9602101 C43.1905187,29.2758441 43.5007262,28.5898312 43.9644753,27.9519771 C44.5359492,27.1659551 45.3058813,26.5025813 46.3168298,25.9955633 C49.0791354,24.6101924 52.8173405,25.2277772 53.7921022,26.2055158 C53.9195166,26.332541 53.9195166,26.332541 54.060071,26.472586 C54.1728465,26.5854669 54.2695109,26.6839954 54.3657676,26.7847918 C54.6121491,27.042793 54.8336782,27.2930902 55.0408437,27.5527457 C55.888355,28.6149932 56.361989,29.6701188 56.361989,30.7218639 L56.361989,35.749199 L59.1445977,35.749199 L59.1445977,30.7218639 C59.1445977,28.939277 58.4213698,27.3281253 57.2159782,25.8173205 C56.7624554,25.2488874 56.6453916,25.1263027 55.7627014,24.2409166 C53.9424628,22.4151191 48.9075302,21.5833034 45.0693718,23.5082436 C43.6540655,24.2180579 42.5427101,25.1756022 41.7138363,26.3156596 C40.5502396,27.9161046 40.1197841,29.5166011 40.0740041,30.6638562 L40.0728977,35.5920949 L42.8555064,35.5920949 L42.8555064,35.5920949 Z" id="Path-4"></path>
                            <path d="M37.8434783,38.3667712 C37.8434783,37.6035019 38.4638108,36.9833992 39.2266168,36.9833992 L59.8342528,36.9833992 C60.5971705,36.9833992 61.2173913,37.6040164 61.2173913,38.3667712 L61.2173913,53.7122802 C61.2173913,54.4755495 60.5970588,55.0956522 59.8342528,55.0956522 L39.2266168,55.0956522 C38.463699,55.0956522 37.8434783,54.475035 37.8434783,53.7122802 L37.8434783,38.3667712 L37.8434783,38.3667712 Z M35.0608696,38.3667712 L35.0608696,53.7122802 C35.0608696,56.0114295 36.9265085,57.8782609 39.2266168,57.8782609 L59.8342528,57.8782609 C62.1336204,57.8782609 64,56.0125726 64,53.7122802 L64,38.3667712 C64,36.0676219 62.134361,34.2007905 59.8342528,34.2007905 L39.2266168,34.2007905 C36.9272492,34.2007905 35.0608696,36.0664788 35.0608696,38.3667712 L35.0608696,38.3667712 Z" id="Rectangle-1"></path>
                            <ellipse id="Oval-1" cx="50.4243687" cy="45.9829415" rx="3.47826087" ry="3.47826087"></ellipse>
                            <polygon id="Path-27" points="5.56521739 7.65217391 40.3478261 7.65217391 40.3478261 6.26086957 5.56521739 6.26086957"></polygon>
                        </g>
                    </g>
                </g>
            </g>
        </g>
    </g>
</svg>

<svg width="64" height="64" viewBox="0 0 64 64" xmlns="http://www.w3.org/2000/svg"><title>blue/icon-large-guide-blue</title><g fill="#1055FF" fill-rule="evenodd"><path d="M48.622 0H6.167a7.397 7.397 0 0 0-3.064.927C1.191 1.99 0 3.798 0 6.345c0 4.624 1.888 6.971 5.404 8.053 1.21.372 9.056.44 22.838.334 3.61-.027 7.444-.067 11.382-.115a3113.105 3113.105 0 0 0 10.303-.144l.841-.013-1.414-1.391v8.67h2.782V11.653l-1.414.023-.839.014-2.327.036c-2.48.036-5.167.073-7.966.108-3.934.048-7.764.087-11.37.115-12.555.095-21.242.021-21.997-.211-2.39-.736-3.44-2.04-3.44-5.394 0-1.478.6-2.39 1.672-2.986.4-.222.841-.382 1.284-.486.26-.061.45-.088.53-.094l42.353.004V0z"/><path d="M44.342.889c-.273.348-.645.935-1.01 1.724-1.694 3.669-1.411 7.728 2.168 11.424l1.999-1.936c-2.693-2.78-2.89-5.614-1.64-8.321.267-.578.527-.988.675-1.178L44.342.889zM.177 7.407v49.541l.024-.256a6.338 6.338 0 0 0 .506 3.677C1.777 62.656 4.172 64 7.936 64h43.668v-5.829h-2.782v4.438l1.392-1.392H7.936c-2.737 0-4.124-.778-4.71-2.03a3.65 3.65 0 0 1-.3-1.899c.005-.055.01-.084.01-.083l.024-.257V7.407H.177zM42.856 35.592V30.72c.003-.07.044-.362.15-.759.185-.684.495-1.37.958-2.008.572-.786 1.342-1.45 2.353-1.956 2.762-1.386 6.5-.768 7.475.21l.268.267c.113.112.21.211.306.312.246.258.468.508.675.768.847 1.062 1.321 2.117 1.321 3.169v5.027h2.783v-5.027c0-1.783-.724-3.394-1.929-4.905-.454-.568-.57-.69-1.453-1.576-1.82-1.826-6.855-2.658-10.694-.733-1.415.71-2.526 1.668-3.355 2.808-1.164 1.6-1.594 3.2-1.64 4.348l-.001 4.928h2.783z"/><path d="M37.843 38.367c0-.763.62-1.384 1.384-1.384h20.607c.763 0 1.383.621 1.383 1.384v15.345c0 .764-.62 1.384-1.383 1.384H39.227c-.763 0-1.384-.621-1.384-1.384V38.367zm-2.782 0v15.345c0 2.3 1.866 4.166 4.166 4.166h20.607c2.3 0 4.166-1.865 4.166-4.166V38.367c0-2.3-1.866-4.166-4.166-4.166H39.227a4.167 4.167 0 0 0-4.166 4.166z"/><ellipse cx="50.424" cy="45.983" rx="3.478" ry="3.478"/><path d="M5.565 7.652h34.783V6.261H5.565z"/></g></svg>
